X:17
T:Strip me Naked. Ru2.017
%%VWML:RutherfordVol2-2249-p9-0
F:http://www.vwml.org/record/RutherfordVol2/2249/p9
B:RUTHERFORD Complete Collection of 200 Country Dances Vol.2; 1759.
Z:vmp.Mike Hicken 2015 www.village-music-project.org.uk
N: *  This note is shown as a dotted crotchet in the original.
N: It has been changed to a crotchet to give the correct repeat.
M:6/8
Q:3/8=110
K:A
A|c2d ece|fdf efg |agf edc|dBB B2d|
c2d ece|fdf geg|agf eca|ecA A2 :|
|: c/d/|eca ecA|d/e/fd ecA|d/e/fd c/d/ec|dBB B2d|
cec dfd|e/f/ge f2g|agf eca|ecA "*"A2 :|
W:
W: First Man go round the 2d and foot it and turn his
W: his partner at top .|  his partner does the same :|
W: cross over half figure .|.  right and left :|.
T:Tom Edwards. Ru2.018
L:1/8
B:RUTHERFORD Complete Collection of 200 Country Dances Vol.2; 1759.
Z:vmp.Mike Hicken 2015 www.village-music-project.org.uk
M:6/8
Q:3/8=110
K:G
GAG BGB|dBd gdB|GAG BGB|dBd g3 :|
|: gbg ege|faf dfd|efg fed|ed^c d3 :|
|: cdc c2a|BcB B2g|ABc BAG|AGF G3 :|
W:
W: First Man foot across but not turn .|  your
W: partner the same :|  Gallop down the middle
W: up again and cast off .|.  right and left :|.
